X:1
T:Title
%%score { ( 1 4 6 ) | ( 2 3 5 ) }
L:1/8
M:6/8
K:Ab
V:1 treble nm="Grand Piano"
V:4 treble 
V:6 treble 
V:2 bass 
V:3 bass 
V:5 bass 
V:1
 z3 z2[Q:1/4=84] C/D/ | [CE][CA][DB] [Ec]>d[Ec] | [Ec] [DB]2- [DB]2 [G,B,]/C/ | %3
 [B,D][B,G][CA] [DB]>cB | A3- [CA]2 C/D/ | [CE][CA][=DB] [Ec]>dc | z B2- B2 z | B=AB =d>[Bc][_Ad] | %8
[M:5/8] [Ge]-[Ge]- [Ge]3 |[M:1/8] z |[M:3/4] .[Gd]F E.c E[DB] | [CA]2 z2 z2 | z2 z [CA] z2 | %13
 B6[K:bass][K:treble] | [Ge]2 [EB] [Ec]2 [Fd] | [=Ec]2 B A2 A | c2 z2 z2 | [Ge]4 z [G,DE] | %18
 [CE]2 [CE][K:bass]_C- [CE][K:treble][CF] | [CE]2 [B,D] C2 E | AG [CA] [CB]2 [CA] | %21
 [DF]4- [DF][DF] | [EF]2 [EF] [EG]2 [E=A] |[M:13/16] z/ z/ z/ z/ z [Fd]/-[Fd]/-[Fd]/-[Fd]-<[Fd] | %24
 cdcBc3/2B |[M:5/8] A-A- A3 |] %26
V:2
 z3 z2 A,/B,/ | A,,E,A, .A,,>[K:treble]FA, | A,,D,E, G,.E,>A, | E,,B,,E, .G,>E[E,G,D] | %4
 z F,D E,2 A,/B,/ | A,,E,[F,A,] .=A,>E[A,E] | z =D2- D2 .E | .[B,G]3 .[A,F]3[K:bass] | %8
[M:5/8] [E,B,]G,,B,, E,,2 |[M:1/8] E |[M:3/4] z2 z .[E,F] z2 | A,,2 D, C,2 A,, | %12
 D,2 .D,2 B,[B,,F,] | [G,E]4- [G,E][G,E] | [E,B,]2 [D,G,] [C,A,]2 [B,,A,] | %15
 C,2- [C,CG] [F,CF]2[K:treble] [F,CF] | [A,CE][G,B,] [F,A,F] [B,A]2[K:bass] [B,,B,] | B,4 z2 | %18
 z E, .A,2 E,=D, | A,,C, E, A,2 C | z E, .A,2 _G,E, | A,,D, F,A, F,D, | C,F, =A,F,, C,F, | %23
[M:13/16] B,,D,F,B,-<B, z/ z | EF[F,=A,E]B,F,3/2[E,G,_D] |[M:5/8] z2 F, E,2 |] %26
V:3
 x6 | z3 z .E,2[K:treble] | z3 z2 D, | z3 z .F,2 | A,,6 | z3 z .F,2 | A, .F,2 z2 [E,B,]/-[E,B,F]/ | %7
 E-[CE-_G][B,E=G] B,->[G,B,][K:bass][F,B,] |[M:5/8] x5 |[M:1/8] x |[M:3/4] .[E,B,]2 z G,2- [E,G,] | %11
 x6 | z2 z .B,,3 | E,2 z2 z2 | x6 | G,2 z2 z2[K:treble] | x5[K:bass] x | E,F, E,D, C,B,, | %18
 A,,3 A,,3 | x6 | A,,3 A,,3 | x6 | x6 |[M:13/16] z/ z/ z/ z/ z D,/-D,/-D,/-D,-<D, | %24
 [E,A,]-<[E,A,] z [C,_A,=D]/-[C,A,D]-<[C,A,D] z |[M:5/8] A,,-A,,- A,,3 |] %26
V:4
 x6 | x6 | x6 | x6 | .[A,C]3 z3 | x6 | .[=Dc]2 =D, F,A,G/A/ | x6 |[M:5/8] x5 |[M:1/8] x | %10
[M:3/4] x6 | A,2- [A,-DF] [A,E]2 [A,CE] | [A,DF]2 [B,EG]=D- [DG][DA] | %13
 z2[K:bass] .E,2 z[K:treble] B | x6 | x6 | z =E c=d c[Ad] | x6 | z2 z[K:bass] [F,=D] z2[K:treble] | %19
 x6 | C2 z2 z2 | x6 | x6 |[M:13/16] [DB]-<[DB][Ec] z/ z/ z A,3/2 | x13/2 |[M:5/8] [A,C]2 D C2 |] %26
V:5
 x6 | x9/2[K:treble] x3/2 | x6 | x6 | x6 | x6 | B,,6 | x5[K:bass] x |[M:5/8] x5 |[M:1/8] x | %10
[M:3/4] x6 | x6 | x6 | x6 | x6 | x5[K:treble] x | x5[K:bass] x | x6 | x6 | x6 | x6 | x6 | x6 | %23
[M:13/16] x13/2 | x13/2 |[M:5/8] x5 |] %26
V:6
 x6 | x6 | x6 | x6 | x6 | x6 | x6 | x6 |[M:5/8] x5 |[M:1/8] x |[M:3/4] x6 | x6 | x6 | %13
 z2[K:bass] z E,3[K:treble] | x6 | x6 | x6 | x6 | x3[K:bass] x2[K:treble] x | x6 | x6 | x6 | x6 | %23
[M:13/16] x13/2 | x13/2 |[M:5/8] x5 |] %26

